usr/share/icons/biglinux-icons-material/scalable/mimetypes/text-x-kvt.svg

<svg width="24" height="24" viewBox="0 0 24 24" fill="none" xmlns="http://www.w3.org/2000/svg">
<rect x="1" y="1" width="22" height="22" rx="6.6" fill="url(#paint0_radial_21_1875)"/>
<g opacity="0.75">
<path d="M17.648 6.3478C17.5922 6.40478 19.9965 11.9992 19.9965 11.9992L17.648 17.6484C17.648 17.6484 11.9977 14.6622 11.9977 11.9981C11.9977 9.33516 17.648 6.3478 17.648 6.3478Z" fill="#46A926"/>
<path d="M6.34849 17.6484C6.40546 17.5914 4 11.9981 4 11.9981L6.34849 6.3478C6.34849 6.3478 11.9988 9.33516 11.9988 11.9992C11.9988 14.6622 6.34849 17.6484 6.34849 17.6484Z" fill="#F22C42"/>
<path d="M17.648 6.3478C17.5922 6.40478 11.9977 4 11.9977 4L6.34733 6.3478L11.9977 11.9992L17.648 6.3478Z" fill="#FFDA64"/>
<path d="M6.3485 17.6484L11.9988 19.9892C11.9988 19.9892 17.591 17.5914 17.6492 17.6484L11.9988 11.9981L6.3485 17.6484Z" fill="#2F5FDD"/>
<path d="M11.9988 4.00349C11.9977 6.04778 12.7801 8.09207 14.3462 9.65727L17.6538 6.35012C16.1554 4.84963 14.1227 4.00558 12.0023 4.00349H11.9988Z" fill="#A6D74F"/>
<path d="M17.6538 6.35012L14.3462 9.65727C15.0874 10.4013 15.9687 10.9912 16.9391 11.3927C17.9095 11.7943 18.9498 11.9997 20 11.9969C19.9964 9.87819 19.1526 7.8474 17.6538 6.35012Z" fill="#76C22B"/>
<path d="M14.338 14.3459C13.5933 15.0869 13.0025 15.9679 12.5996 16.9382C12.1968 17.9085 11.9898 18.949 11.9907 19.9997H12.0709C14.1658 19.9804 16.1696 19.14 17.6515 17.6588L14.338 14.3459Z" fill="#1463A5"/>
<path d="M20 12.0062C18.9485 12.0024 17.9066 12.2072 16.9347 12.6088C15.9629 13.0104 15.0803 13.6008 14.338 14.3459L17.6515 17.66C19.1528 16.1614 19.9976 14.1277 20 12.0062Z" fill="#2B898F"/>
<path d="M4.00349 11.9992C4.00349 12.0004 4.00349 12.0016 4.00349 12.0027C4.00558 14.1212 4.84765 16.1524 6.34501 17.6507L9.65848 14.3389C8.91702 13.5949 8.03553 13.0051 7.06491 12.6037C6.09429 12.2024 5.05379 11.9962 4.00349 11.9992Z" fill="#9B33AE"/>
<path d="M9.65732 14.3389L6.34384 17.6507C7.83189 19.1421 9.8481 19.9862 11.9547 19.9997H12.0046C12.0064 18.9478 11.7999 17.906 11.397 16.9345C10.9942 15.9629 10.4029 15.0807 9.65732 14.3389Z" fill="#7839B7"/>
<path d="M12.0023 4.00349C9.8837 4.00558 7.85244 4.84827 6.35431 6.34663L9.66545 9.65727C10.41 8.91642 11.0008 8.03559 11.4036 7.06547C11.8065 6.09535 12.0135 5.05512 12.0128 4.00465C12.0089 4.00465 12.005 4.00465 12.0012 4.00465L12.0023 4.00349Z" fill="#FDC92B"/>
<path d="M6.35431 6.34663C4.8534 7.8442 4.00828 9.87647 4.00465 11.9969C5.056 12.0006 6.09764 11.7957 7.0693 11.3941C8.04096 10.9925 8.92336 10.4022 9.66545 9.65727L6.35431 6.34663Z" fill="#F34F17"/>
</g>
<path opacity="0.35" d="M12.0001 17.714C15.156 17.714 17.7143 15.1556 17.7143 11.9997C17.7143 8.84381 15.156 6.28545 12.0001 6.28545C8.84417 6.28545 6.28581 8.84381 6.28581 11.9997C6.28581 15.1556 8.84417 17.714 12.0001 17.714Z" fill="white"/>
<defs>
<radialGradient id="paint0_radial_21_1875" cx="0" cy="0" r="1" gradientUnits="userSpaceOnUse" gradientTransform="translate(17.5 1) rotate(116.565) scale(24.5967)">
<stop stop-color="#F4F4F4"/>
<stop offset="1" stop-color="#BBBBBB"/>
</radialGradient>
</defs>
</svg>

<svg xmlns="http://www.w3.org/2000/svg" width="24" height="24" fill="none"><rect width="22" height="22" x="1" y="1" fill="url(#a)" rx="6.6"/><g opacity=".75"><path fill="#46A926" d="M17.648 6.348c-.056.057 2.349 5.651 2.349 5.651l-2.349 5.65s-5.65-2.987-5.65-5.65c0-2.664 5.65-5.651 5.65-5.651Z"/><path fill="#F22C42" d="M6.348 17.648C6.405 17.591 4 11.998 4 11.998l2.348-5.65s5.65 2.987 5.65 5.651c0 2.663-5.65 5.65-5.65 5.65Z"/><path fill="#FFDA64" d="M17.648 6.348C17.592 6.405 11.998 4 11.998 4l-5.65 2.348 5.65 5.651 5.65-5.651Z"/><path fill="#2F5FDD" d="m6.348 17.648 5.65 2.341s5.593-2.398 5.651-2.34L12 11.998l-5.65 5.65Z"/><path fill="#A6D74F" d="M11.999 4.003a7.962 7.962 0 0 0 2.347 5.654l3.308-3.307a7.998 7.998 0 0 0-5.652-2.347H12Z"/><path fill="#76C22B" d="m17.654 6.35-3.308 3.307A7.95 7.95 0 0 0 20 11.997a8.001 8.001 0 0 0-2.346-5.647Z"/><path fill="#1463A5" d="M14.338 14.346A7.967 7.967 0 0 0 11.991 20h.08a7.998 7.998 0 0 0 5.58-2.341l-3.313-3.313Z"/><path fill="#2B898F" d="M20 12.006a7.951 7.951 0 0 0-5.662 2.34l3.313 3.314A8.001 8.001 0 0 0 20 12.006Z"/><path fill="#9B33AE" d="M4.003 12v.003a8.001 8.001 0 0 0 2.342 5.648l3.313-3.312a7.952 7.952 0 0 0-5.655-2.34Z"/><path fill="#7839B7" d="M9.657 14.339 6.344 17.65A7.998 7.998 0 0 0 11.954 20h.05a7.966 7.966 0 0 0-2.347-5.661Z"/><path fill="#FDC92B" d="M12.002 4.003a7.998 7.998 0 0 0-5.648 2.344l3.311 3.31a7.965 7.965 0 0 0 2.348-5.652H12l.001-.002Z"/><path fill="#F34F17" d="M6.354 6.347a8.001 8.001 0 0 0-2.35 5.65 7.95 7.95 0 0 0 5.661-2.34l-3.31-3.31Z"/></g><path fill="#fff" d="M12 17.714a5.714 5.714 0 1 0 0-11.428 5.714 5.714 0 0 0 0 11.428Z" opacity=".35"/><defs><radialGradient id="a" cx="0" cy="0" r="1" gradientTransform="rotate(116.565 8.441 5.908) scale(24.5967)" gradientUnits="userSpaceOnUse"><stop stop-color="#F4F4F4"/><stop offset="1" stop-color="#BBB"/></radialGradient></defs></svg>
